X: 0
T: The Ballydesmond
C: Trad
O: Ireland
M: 2/4
L: 1/8
K: Ador
|:AB|"Am"c2 "Em"B2|"Am"A2 GA|"G"Bd ed|"Em"g2 ed|
"Am"ea ge|"G"dB "Em"GA/B/|"Am"ce "G"dB|"Am"A2:|
|:cd|"Am"ea ag|"Em"dg gd|"Am"ea ab|"G"g2 ed|
"Am"ea ge|"Em"dB GA/B/|"F"ce "G"dB|"Am"A2:|